X:12847
T:PASSEPIED de PLAINTEL 2
Z: Yves BELOTTEAU
M:4/4
L:1/4
Q:1/4=60
K:G
|GA/2^A/2=AG c^A=AA|GA/2^A/2=AG c^A=A2|GA/2^A/2=AG c^A=AA|GA/2^A/2=AG c^
A=A2|
GA/2^A/2G=A ^A=A/2G/2^D2|GA/2^A/2=AG c^A=AA|GA/2^A/2G=A ^A=A/2G/2^D2|GA/
2^A/2=Ac ^A=AG2|
GddB cedB|cedc BAGG|GddB cedB|cedc BAGG|
A/2B/2cBA2d2G|A/2B/2cBA BA2G|A/2B/2cBA2d2G|A/2B/2cBA BA2G|
A/2B/2A2G2|
